ci/cil-filter-square.svg

<svg xmlns="http://www.w3.org/2000/svg" viewBox="0 0 512 512" height="1em" width="1em">
  <path fill="var(--ci-primary-color, currentColor)" d="M472 16H40a24.027 24.027 0 0 0-24 24v432a24.027 24.027 0 0 0 24 24h432a24.028 24.028 0 0 0 24-24V40a24.028 24.028 0 0 0-24-24Zm-8 448H48V48h416Z" class="ci-primary"/>
  <path fill="var(--ci-primary-color, currentColor)" d="M208 427h48.627L301 368.076V260.87l114-129.018V85H89v47.176l119 129.018Zm-87-307.328V117h262v2.739L269 248.757v108.618L240.666 395H240V248.69Z" class="ci-primary"/>
</svg>

<svg xmlns="http://www.w3.org/2000/svg" viewBox="0 0 512 512" height="1em" width="1em">
  <path fill="var(--ci-primary-color, currentColor)" d="M472,16H40A24.027,24.027,0,0,0,16,40V472a24.027,24.027,0,0,0,24,24H472a24.028,24.028,0,0,0,24-24V40A24.028,24.028,0,0,0,472,16Zm-8,448H48V48H464Z" class="ci-primary"/>
  <path fill="var(--ci-primary-color, currentColor)" d="M208,427h48.627L301,368.076V260.87L415,131.852V85H89v47.176L208,261.194ZM121,119.672V117H383v2.739L269,248.757V357.375L240.666,395H240V248.69Z" class="ci-primary"/>
</svg>
